layout/bottom-panel/widgets/battery/icons/battery-alert-red.svg

<svg enable-background="new 0 0 24.00 24.00" height="95.716728" viewBox="0 0 14.357557 23.929182" width="57.430229" xmlns="http://www.w3.org/2000/svg"><path d="m8.4043579 14.354679h-2.392924v-5.9822503h2.392924m0 10.7680993h-2.392924v-2.392924h2.392924m4.3874271-14.3574859h-1.994502v-2.39292421h-7.1787851v2.39292421h-1.99449c-.88063302 0-1.59489602.7142641-1.59489602 1.5948841v18.3464898c0 .880717.714263 1.594884 1.59489602 1.594884h11.1677771c.880596 0 1.594884-.714167 1.594884-1.594884v-18.3464898c0-.88062-.714288-1.5948841-1.594884-1.5948841z" fill="#ff0004" stroke-linejoin="round" stroke-width="1.19646"/></svg>

<?xml version="1.0" encoding="UTF-8" standalone="no"?>
<svg xmlns:dc="http://purl.org/dc/elements/1.1/" xmlns:cc="http://creativecommons.org/ns#"
  xmlns:rdf="http://www.w3.org/1999/02/22-rdf-syntax-ns#" xmlns:svg="http://www.w3.org/2000/svg"
  xmlns="http://www.w3.org/2000/svg" xmlns:sodipodi="http://sodipodi.sourceforge.net/DTD/sodipodi-0.dtd"
  xmlns:inkscape="http://www.inkscape.org/namespaces/inkscape" version="1.1" width="57.430229" height="95.716728"
  viewBox="0 0 14.357557 23.929182" enable-background="new 0 0 24.00 24.00" xml:space="preserve" id="svg4"
  sodipodi:docname="battery-alert-red.svg" inkscape:version="1.0.1 (3bc2e813f5, 2020-09-07)">
  <metadata id="metadata10">
    <rdf:RDF>
      <cc:Work rdf:about="">
        <dc:format>image/svg+xml</dc:format>
        <dc:type rdf:resource="http://purl.org/dc/dcmitype/StillImage" />
        <dc:title />
      </cc:Work>
    </rdf:RDF>
  </metadata>
  <defs id="defs8" />
  <sodipodi:namedview pagecolor="#f4f4f7" bordercolor="#666666" borderopacity="1" objecttolerance="10"
    gridtolerance="10" guidetolerance="10" inkscape:pageopacity="0" inkscape:pageshadow="2" inkscape:window-width="1920"
    inkscape:window-height="1006" id="namedview6" showgrid="false" inkscape:zoom="5.0407549" inkscape:cx="21.979386"
    inkscape:cy="41.732654" inkscape:window-x="0" inkscape:window-y="27" inkscape:window-maximized="1"
    inkscape:current-layer="layer1" inkscape:document-rotation="0" fit-margin-top="0" fit-margin-left="0"
    fit-margin-right="0" fit-margin-bottom="0" />

  <g inkscape:groupmode="layer" id="layer1" inkscape:label="Layer 1">
    <path fill="#f4f4f7" fill-opacity="1" stroke-width="1.19646" stroke-linejoin="round"
      d="M 8.4043579,14.354679 H 6.0114339 V 8.3724287 h 2.392924 m 0,10.7680993 h -2.392924 v -2.392924 h 2.392924 M 12.791785,2.3901181 H 10.797283 V -0.00280611 H 3.6184979 V 2.3901181 h -1.99449 c -0.88063302,0 -1.59489602,0.7142641 -1.59489602,1.5948841 V 22.331492 c 0,0.880717 0.714263,1.594884 1.59489602,1.594884 H 12.791785 c 0.880596,0 1.594884,-0.714167 1.594884,-1.594884 V 3.9850022 c 0,-0.88062 -0.714288,-1.5948841 -1.594884,-1.5948841 z"
      id="path2" style="fill:#ff0004;fill-opacity:1" />
  </g>
  <g inkscape:groupmode="layer" id="layer2" inkscape:label="Layer 2" />
</svg>
